X:0667
T:The Highland Chiftain.
M:C
L:1/8
Q:1/4=120
I: || ||
N:printed key signature is one sharp
Z:Jack Campin * www.campin.me.uk * 2009
K:D
g|Tf>ed>B  AFFd  |(AF)A>E  F2 Fg   |Tf>ed>B    A>Bd>B |(A<F)TF>D E2Eg|
  Tf>de>f  d>fB>d| A>dAF   A2 AB/c/|Td>f dc/B/ AFFd   |(A<F)TF>D E2E||
B| A<FTF>B A<FF>d| AFAE   TF2 FB   | A<FA>B   Td>ef>e | d>BAF    E2EB|
  (A<F)F>d A<FF>B|(A<F)A>E F2 F>B  | A>Bd>f   (e<fd>B)| ABdF     E2E|]
<end>
<start>
